X: 70
T: Hyde Park
M:6/8
L:1/8
Q:160
S:Playford
O:Manuscript
A:English
K:C
efg gec|efg d2 c|ede fge/2f/2|gd>c c3|efg gec|efg d2 c|ede fge/2f/2|g>dc c3:|
|: d>ed dBG|GAB Bcd|cde efg|gfg e>dc|def f>gf|def d>cB|Accd eef|g>dc c3:|

